!!!!SEGMENT: pl-sa--153-a-iv-3--004_anonim--msza-sanctus.krn
!!!cenid: 17xx:1528
!!!COM: Anonim
!!!COM-rismID: pe30004985
!!!CDT:
!!!CNT:
!!!OPR: Msza
!!!OTL: Sanctus
!!!OMV: 004
!!!PDT:
!!!AGN: Sacred; Mass
!!!SMS-siglum: PL-SA
!!!SMS-shelfmark: 153/A IV 3
!!!SMS-shelfwork: 001-004 M
!!!SMS-variant:
!!!SMS-altvar:
!!!NIFC-rismSourceID: 1001035513
!!!NIFC-rismChildID: 1001035513
!!!NIFC-islandoraID:
!!!URL-pdf-islandora:
!!!URL-scan: https://bc.bdsandomierz.pl/dlibra/publication/1539/edition/1507/content @EN{Scan in the Sandomierz Diocese Digital Library} @PL{Skany w portalu Cyfrowa Biblioteka Diecezjalna w Sandomierzu}
!!!ONB-nifc: UWAGA: części Mszy: 1. Kirie, 2. Gloria, 3. Patrem, 4. Sanctus, 5. Benedictus, 6. Agnus. Uwaga: kontynuacja partii b. fig na str. 22
!!!AIN: 1 bass 2 empty 1 organ 2 violn 1 vox
!!!key:
**kern	**fba	**kern	**kern	**kern	**text	**kern	**text	**kern	**kern
*part7	*part7	*part6	*part5	*part4	*part4	*part3	*part3	*part2	*part1
*staff7	*	*staff6	*staff5	*staff4	*staff4	*staff3	*staff3	*staff2	*staff1
*Iorgan	*	*Ivioln	*Ivioln	*Ibass	*	*Ivox	*	*Iempty	*Iempty
*I"Organo	*	*I"Violino Secundo	*I"Violino Primo	*I"Basso	*	*I"Canto	*	*I"Clarino Secundo	*I"Clarino Primo
*I'Org.	*	*I'Vn II	*I'Vn I	*I'B.	*	*I'C.	*	*I'Clno II	*I'Clno I
*clefF4	*	*clefG2	*clefG2	*clefF4	*	*clefC1	*	*clefG2	*clefG2
*	*	*	*	*	*	*	*	*ITrd-1c-2	*ITrd-1c-2
*k[f#c#]	*	*k[f#c#]	*k[f#c#]	*k[f#c#]	*	*k[f#c#]	*	*k[f#c#]	*k[f#c#]
*D:	*	*D:	*D:	*D:	*	*D:	*	*D:	*D:
*M4/4	*	*M4/4	*M4/4	*M4/4	*	*M4/4	*	*M4/4	*M4/4
*met(c)	*	*met(c)	*met(c)	*met(c)	*	*met(c)	*	*met(c)	*met(c)
=1	=1	=1	=1	=1	=1	=1	=1	=1	=1
*	*	*2\right	*2\right	*2\right	*	*2\right	*	*	*
!LO:TX:b:rj:t=Sanctus	!	!LO:TX:b:rj:t=Sanctus	!LO:TX:b:rj:t=Sanctus	!	!	!	!	!	!
!LO:TX:a:rj:t=Adagio	!	!LO:TX:a:rj:t=Adagio	!LO:TX:a:rj:t=Adagio	!LO:TX:a:rj:t=Adagio	!	!	!	!LO:TX:b:rj:t=Sanctus	!LO:TX:b:rj:t=Sanctus
!	!	!	!	!	!	!LO:TX:a:rj:t=Ada(gio)	!	!LO:TX:a:rj:t=Adagio	!LO:TX:a:rj:t=Adagio
2D/	.	2ff#\	2aa\	2D\	San-	2ff#\	San-	8r	8r
.	.	.	.	.	.	.	.	8ff#\L	8aa\L
.	.	.	.	.	.	.	.	8ff#\	8aa\
.	.	.	.	.	.	.	.	8ff#\J	8aa\J
4D/	.	8r	8r	4D\	-ctus	4ff#\	-ctus	4ff#\	4aa\
.	.	8ff#\L	8aa\L	.	.	.	.	.	.
4r	.	8ff#\	8aa\	4r	.	4r	.	4r	4r
.	.	8ff#\J	8aa\J	.	.	.	.	.	.
=2	=2	=2	=2	=2	=2	=2	=2	=2	=2
*	*	*	*	*	*ij	*	*ij	*	*
2Cn/	.	2ff#\	2aa\	2Cn/	San-	2dd\	San-	8r	8r
.	.	.	.	.	.	.	.	8ff#\L	8aa\L
.	.	.	.	.	.	.	.	8ff#\	8aa\
.	.	.	.	.	.	.	.	8ff#\J	8aa\J
4C/	.	8r	8r	4C/	-ctus	4dd\	-ctus	4ff#\	4aa\
.	.	8ff#\L	8aa\L	.	.	.	.	.	.
4r	.	8ff#\	8aa\	4r	.	4r	.	4r	4r
.	.	8ff#\J	8aa\J	.	.	.	.	.	.
=3	=3	=3	=3	=3	=3	=3	=3	=3	=3
2BB/	.	2ff#\	2aa\	2BB/	San-	2dd#X\	San-	8r	8r
.	.	.	.	.	.	.	.	8ff#\L	8aa\L
.	.	.	.	.	.	.	.	8ff#\	8aa\
.	.	.	.	.	.	.	.	8ff#\J	8aa\J
4BB/	.	8r	8r	4BB/	-ctus	4dd#\	-ctus	4ff#\	4aa\
*	*	*	*	*	*Xij	*	*Xij	*	*
.	.	8ff#\L	8aa\L	.	.	.	.	.	.
4r	.	8ff#\	8aa\	4r	.	4r	.	4r	4r
.	.	8ff#\J	8aa\J	.	.	.	.	.	.
=4	=4	=4	=4	=4	=4	=4	=4	=4	=4
!	!	!LO:TX:a:t=P:problem=mixed beam	!	!	!	!	!	!	!
4E\	.	8b/L	4gg\	4E\	san-	4ee\	San-	4ee\	4gg\
.	.	8bb\	.	.	.	.	.	.	.
4E\	.	8gg\	2ee\	4E\	-ctus	4ee\	-ctus	4r	4r
.	.	8ee\J	.	.	.	.	.	.	.
4F#\	.	4a/	.	4F#\	Do-	4ee\	Do-	2r	2r
8F#\L	.	4aa\	4dd#X\	8F#\	-mi-	8dd#X\	-mi-	.	.
8F#\J	.	.	.	8F#\	-nus	8dd#\	-nus	.	.
=5	=5	=5	=5	=5	=5	=5	=5	=5	=5
4G\	.	8gg\L	4ee\	4G\	De-	4ee\	De-	1r	1r
.	.	8ff#\J	.	.	.	.	.	.	.
4A\	.	2ee\	4cccn\	4A\	-us	4ee\	-us	.	.
4B\	.	.	4bb\	4.B\	Sa-	4ee\	sa-	.	.
4BB/	.	4a/	4dd#X\	.	.	4dd#X\	-ba-	.	.
.	.	.	.	8BB/	-ba-	.	.	.	.
!	!	!	!LO:LB:g=original	!	!	!	!	!	!
=6	=6	=6	=6	=6	=6	=6	=6	=6	=6
!	!	!	!LO:TX:a:t=P:problem=mixed beam	!	!	!	!	!	!
4E\	.	8g/L	8ee\L	4E\	-oth	4ee\	-oth	4r	4r
.	.	8f#/J	8gg\	.	.	.	.	.	.
4C#/	.	4e/	8a/	8C#/	San-	8ee\	San-	4ee\	4gg\
.	.	.	8gg\J	8C#/	-ctus	8ee\	-ctus	.	.
4D/	.	4a/	8ff#\L	4D\	Do-	4ddn\	Do-	4dd\	4ff#\
.	.	.	8aa\	.	.	.	.	.	.
4E/	.	4gg\	8cc#\	8E\	-mi-	8cc#X\	-mi-	4ee\	4gg\
.	.	.	8aa\J	8E\	-nus	8cc#\	-nus	.	.
!	!	!	!	!	!	!LO:LB:g=original	!	!	!
=7	=7	=7	=7	=7	=7	=7	=7	=7	=7
4F#\	.	8ff#\L	8dd\L	4F#\	De-	4dd\	De-	4ff#\	4aa\
.	.	8aa\	8aa\	.	.	.	.	.	.
4G\	.	8dd\	8bb\	4G\	-us	4dd\	-us	8r	8dd\L
.	.	8ee\J	8dd\J	.	.	.	.	8dd\	8ee\J
*	*	*	*	*	*	*	*	*	*2\right
!	!	!	!LO:TX:a:t=P:problem=mixed beam	!	!	!	!	!	!
4A\	.	4e/	8cc#\L	4.A\	Sa-	4dd\	sa-	2a/	2eeT\
.	.	.	8ee\	.	.	.	.	.	.
4AA/	.	4cc#\	8a/	.	.	4cc#X\	-ba-	.	.
.	.	.	8aa\J	8AA/	-ba-	.	.	.	.
=8	=8	=8	=8	=8	=8	=8	=8	=8	=8
!LO:TX:a:t=P:problem=mixed beam	!	!	!	!	!	!	!	!	!
!LO:TX:a:t=Allo	!	!LO:TX:a:t=Allo	!LO:TX:a:t=Allo	!	!	!	!	!	!
8D/L	.	4dd\	16aa\LL	8D\	-oth	8dd\	-oth	4f#/	4dd\
.	.	.	16gg\	.	.	.	.	.	.
!	!	!	!	!	!	!LO:TX:a:t=Allo	!	!	!
8d\	.	.	16ff#\	8d\	Ple-	8ff#\	ple-	.	.
.	.	.	16ee\JJ	.	.	.	.	.	.
!	!	!	!	!	!	!	!	!LO:TX:a:t=Allo	!
8d\	.	8r	16dd\LL	8d\	-ni	8ff#\	-ni	4r	4r
.	.	.	16cc#\	.	.	.	.	.	.
8d\J	.	8ff#\	16b\	8d\	sunt	8ff#\	sunt	.	.
.	.	.	16a\JJ	.	.	.	.	.	.
*	*	*	*tremolo	*	*	*	*	*	*
!	!	!	!	!LO:LB:g=original	!	!	!	!	!
!	!	!	!	!	!	!	!	!	!LO:TX:a:t=Allo
8c#\L	.	8ee\L	8aa\L	(8c#\L	Ce-	(8ee\L	ce-	2r	2r
8B\	.	8dd\	8aa\	8B\J)	.	8dd\J)	.	.	.
8c#\	.	8ee\	8aa\	8c#\	-li	8ee\	-li	.	.
8A\J	.	8cc#\J	8aa\J	8A\	et	8cc#\	et	.	.
!LO:LB:g=original	!	!	!	!	!	!	!	!	!
=9	=9	=9	=9	=9	=9	=9	=9	=9	=9
4B\	.	4dd\	16gg\LL	4B\	ter-	4dd\	ter-	00r	00r
.	.	.	16ff#\	.	.	.	.	.	.
.	.	.	16ee\	.	.	.	.	.	.
.	.	.	16dd\JJ	.	.	.	.	.	.
4r	.	4r	16cc#\LL	4B\	-ra	4dd\	-ra	.	.
.	.	.	16b\	.	.	.	.	.	.
.	.	.	16a\	.	.	.	.	.	.
.	.	.	16g\JJ	.	.	.	.	.	.
8B\L	.	8dd\L	8gg\L	(8B\L	glo-	(8dd\L	glo-	.	.
8A\	.	8cc#\	8gg\	8A\J)	.	8cc#\J)	.	.	.
8B\	.	8dd\	8gg\	8B\	-ri-	8dd\	-ri-	.	.
8G\J	.	8b\J	8gg\J	8G\	-a	8b\	-a	.	.
=10	=10	=10	=10	=10	=10	=10	=10	=10	=10
4A\	.	4cc#\	16ff#\LL	4A\	tu-	4cc#\	tu-	.	.
.	.	.	16ee\	.	.	.	.	.	.
.	.	.	16dd\	.	.	.	.	.	.
.	.	.	16cc#\JJ	.	.	.	.	.	.
4r	.	4r	16b\LL	4A\	-a	4cc#\	-a	.	.
.	.	.	16a\	.	.	.	.	.	.
.	.	.	16g\	.	.	.	.	.	.
.	.	.	16f#\JJ	.	.	.	.	.	.
8A\L	.	8cc#\L	8ff#\L	8A\L	glo-	(8cc#\L	glo-	.	.
8G\	.	8b\	8ff#\	8G\J	.	8b\J)	.	.	.
8A\	.	8cc#\	8ff#\	8A\	-ri-	8cc#\	-ri-	.	.
8F#\J	.	8a\J	8ff#\J	8F#\	-a	8a\	-a	.	.
=11	=11	=11	=11	=11	=11	=11	=11	=11	=11
4G\	.	4b\	16ee\LL	4G\	tu-	4b\	tu-	.	.
.	.	.	16dd\	.	.	.	.	.	.
.	.	.	16cc#\	.	.	.	.	.	.
.	.	.	16b\JJ	.	.	.	.	.	.
4r	.	4r	16a/LL	4G\	-a	4b\	-a	.	.
.	.	.	16g/	.	.	.	.	.	.
.	.	.	16f#/	.	.	.	.	.	.
.	.	.	16e/JJ	.	.	.	.	.	.
!	!	!LO:LB:g=original	!	!	!	!	!	!	!
8G\L	.	8b\L	8ee\L	(8G\L	glo-	(8b\L	glo-	.	.
8F#\	.	8a\	8ee\	8F#\J)	.	8a\J)	.	.	.
!	!	!	!	!	!	!LO:LB:g=original	!	!	!
8G\	.	8b\	8ee\	8G\	-ri-	8b\	-ri-	.	.
8E\J	.	8g\J	8ee\J	8E\	-a	8g\	-a	.	.
*	*	*	*Xtremolo	*	*	*	*	*	*
=12	=12	=12	=12	=12	=12	=12	=12	=12	=12
16F#\LL	.	4a/	4d/ 4a/ 4ff#/	16F#\LL	glo-	16a\LL	glo-	.	.
16D\	.	.	.	16D\	.	16f#\	.	.	.
16E\	.	.	.	16E\	.	16g\	.	.	.
16F#\JJ	.	.	.	16F#\JJ	.	16a\JJ	.	.	.
16G\LL	.	4r	4r	16G\LL	.	16b\LL	.	.	.
16A\	.	.	.	16A\	.	16cc#\	.	.	.
16B\	.	.	.	16B\	.	16dd\	.	.	.
16c#\JJ	.	.	.	16c#\JJ	.	16ee\JJ	.	.	.
8.d\L	.	2r	16r	8.d\	.	8.ff#\	.	.	.
.	.	.	16d/LL	.	.	.	.	.	.
.	.	.	16e/	.	.	.	.	.	.
16d\Jk	.	.	16f#/JJ	16d\	-ri-	16ff#\	-ri-	.	.
4d\	.	.	16g/LL	4d\	-a	4ff#\	-a	.	.
.	.	.	16a/	.	.	.	.	.	.
.	.	.	16b/	.	.	.	.	.	.
.	.	.	16cc#/JJ	.	.	.	.	.	.
=13	=13	=13	=13	=13	=13	=13	=13	=13	=13
!	!	!	!LO:TX:a:t=P:problem=mixed beam	!	!	!	!	!	!
2r	.	16r	16dd\LL	2r	.	2r	.	2r	2r
.	.	16d/LL	16f#/	.	.	.	.	.	.
.	.	16e/	16g/	.	.	.	.	.	.
.	.	16f#/JJ	16a/JJ	.	.	.	.	.	.
.	.	16g/LL	16b\LL	.	.	.	.	.	.
.	.	16a/	16cc#\	.	.	.	.	.	.
.	.	16b/	16dd\	.	.	.	.	.	.
.	.	16cc#/JJ	16ee\JJ	.	.	.	.	.	.
!	!	!	!	!	!	!	!	!	!LO:TX:b:t=Pleni
8r	.	8dd\L	16ff#\LL	8r	.	8r	.	8r	8r
.	.	.	16aa\	.	.	.	.	.	.
8d\L	.	8ff#\	16aa\	8d\	ple-	8ff#\	Ple-	8dd\L	8ff#\L
.	.	.	16aa\JJ	.	.	.	.	.	.
*	*	*	*tremolo	*	*	*	*	*	*
8c#\	.	8ee\	16aa\LL	8c#\	-ni	8ee\	-ni	8a\	8ee\
.	.	.	16aa\	.	.	.	.	.	.
8d\J	.	8ff#\J	16aa\	8d\	sunt	8ff#\	sunt	8dd\J	8ff#\J
.	.	.	16aa\JJ	.	.	.	.	.	.
!	!	!	!LO:LB:g=original	!LO:LB:g=original	!	!	!	!	!
=14	=14	=14	=14	=14	=14	=14	=14	=14	=14
!	!	!	!	!	!	!	!	!LO:TX:a:t=P:problem=mixed beam	!
8A\L	.	8cc#\L	16aa\LL	8A\L	ce-	8ee\L	Ce-	8a/L	8ee\
.	.	.	16aa\	.	.	.	.	.	.
8d\	.	8ff#\	16aa\	8d\J	.	8ff#\J	.	8ff#\	4aa\
.	.	.	16aa\JJ	.	.	.	.	.	.
8c#\	.	8ee\	16aa\LL	8c#\	-li	8ee\	-li	8ee\	.
.	.	.	16aa\	.	.	.	.	.	.
.	.	.	.	.	.	.	.	.	8qqgg/
8d\J	.	8ff#\J	16aa\	8d\	et	8dd\	et	8dd\J	8ff#\
.	.	.	16aa\JJ	.	.	.	.	.	.
8A\L	.	8ee\L	16aa\LL	8A\	ter-	8cc#\	ter-	8a/L	8ee\L
.	.	.	16aa\	.	.	.	.	.	.
!	!	!	!	!	!	!LO:SIC:o:s:v=błędnie wpisana kreska taktowa	!	!	!
8A\J	.	8ee\J	16aa\	8A\	-ra	8cc#\	-ra	8a/J	8ee\J
.	.	.	16aa\JJ	.	.	.	.	.	.
8F#\L	.	8dd\L	16aa\LL	8F#\	glo-	8dd\	glo-	8r	8r
.	.	.	16aa\	.	.	.	.	.	.
16E\L	.	16ee\L	16aa\	16E\	-ri-	16dd\	-ri-	8dd\	8ff#\
16D\JJ	.	16ff#\JJ	16aa\JJ	16D\	-a	16dd\	-a	.	.
!	!	!	!	!	!	!	!	!LO:LB:g=original	!
=15	=15	=15	=15	=15	=15	=15	=15	=15	=15
*	*	*^	*	*	*	*	*	*	*
8A\L	.	8ee/L	8cc#\L	16aa\LL	8A\	tu-	8cc#\	tu-	8a/L	8ee\L
.	.	.	.	16gg\	.	.	.	.	.	.
8A\J	.	8ee/J	8cc#\J	16ff#\	8A\	-a	8cc#\	-a	8a/J	8ee\J
.	.	.	.	16ee\JJ	.	.	.	.	.	.
8r	.	8r	2.ryy	16dd\LL	8r	.	8r	.	4r	4r
.	.	.	.	16cc#\	.	.	.	.	.	.
8A\	.	8cc#\	.	16b\	8A\	o-	8cc#\	o-	.	.
.	.	.	.	16a\JJ	.	.	.	.	.	.
!	!	!	!	!	!	!	!LO:LB:g=original	!	!	!
8B\L	6	8dd\L	.	8gg\L	8B\	-san-	8dd\	-san-	2r	2r
8A\	.	8cc#\	.	8gg\	8A\	-na	8cc#\	-na	.	.
8B\	.	8dd\	.	8gg\	8B\	in	8dd\	in	.	.
8G\J	.	8b\J	.	8gg\J	8G\	ex-	8b\	ex-	.	.
*	*	*v	*v	*	*	*	*	*	*	*
!	!	!	!	!	!	!	!	!	!LO:LB:g=original
=16	=16	=16	=16	=16	=16	=16	=16	=16	=16
8A\L	.	8cc#\L	16ff#\LL	8A\L	-cel-	(8cc#\L	-cel-	0r	0r
.	.	.	16ee\	.	.	.	.	.	.
8G\	.	8b\	16dd\	8G\J	.	8b\J)	.	.	.
.	.	.	16cc#\JJ	.	.	.	.	.	.
8A\	.	8cc#\	16b/LL	8A\	-sis	8cc#\	-sis	.	.
.	.	.	16a/	.	.	.	.	.	.
8F#\J	.	8a\J	16g/	8F#\	o-	8a\	o-	.	.
.	.	.	16f#/JJ	.	.	.	.	.	.
8G\L	.	8b/L	8ee\L	8G\	-san-	8b\	-san-	.	.
8F#\	.	8a/	8ee\	8F#\	-na	8a\	-na	.	.
8G\	.	8b/	8ee\	8G\	in	8b\	in	.	.
8E\J	.	8g/J	8ee\J	8E\	ex-	8g\	ex-	.	.
*	*	*	*Xtremolo	*	*	*	*	*	*
=17	=17	=17	=17	=17	=17	=17	=17	=17	=17
8F#\L	.	8a/L	16dd\LL	8F#\L	-cel-	(8a\L	-cel-	.	.
.	.	.	16cc#\	.	.	.	.	.	.
8E\	.	8g/	16b\	8E\J	.	8g\J)	.	.	.
.	.	.	16a\JJ	.	.	.	.	.	.
8F#\	.	8a/	16g/LL	8F#\	-sis	8a\	-sis	.	.
.	.	.	16f#/	.	.	.	.	.	.
8D\J	.	8f#/J	16e/	8D\	o-	8a\	o-	.	.
.	.	.	16d/JJ	.	.	.	.	.	.
!	!	!	!	!LO:LB:g=original	!	!	!	!	!
!	!	!LO:TX:a:t=P:problem=mixed beam	!	!	!	!	!	!	!
4G\	.	8d/L	16b\LL	4G\	-san-	8b\	-san-	.	.
.	.	.	16cc#\	.	.	.	.	.	.
.	.	8b\J	16dd\	.	.	8ee\	-na	.	.
.	.	.	16ee\JJ	.	.	.	.	.	.
!	!	!LO:TX:a:t=P:problem=mixed beam	!	!	!	!	!	!	!
4A\	.	8e/L	16cc#\LL	4A\	-na	8cc#\	in	.	.
.	.	.	16dd\	.	.	.	.	.	.
.	.	8cc#\J	16ee\	.	.	8ff#\	ex-	.	.
.	.	.	16ff#\JJ	.	.	.	.	.	.
!LO:LB:g=original	!	!	!	!	!	!	!	!	!
=18	=18	=18	=18	=18	=18	=18	=18	=18	=18
!	!	!LO:TX:a:t=P:problem=mixed beam	!	!	!	!	!	!	!
4B\	.	8f#/L	16dd\LL	4B\	in	8dd\L	-cel-	1r	2r
.	.	.	16ee\	.	.	.	.	.	.
.	.	8dd\J	16ff#\	.	.	8gg\	.	.	.
.	.	.	16gg\JJ	.	.	.	.	.	.
!	!	!LO:TX:a:t=P:problem=mixed beam	!	!	!	!	!	!	!
4c#\	.	8g/L	16ee\LL	4c#\	ex-	8ee\	.	.	.
.	.	.	16ff#\	.	.	.	.	.	.
.	.	8ee\J	16gg\	.	.	8aa\J	.	.	.
.	.	.	16aa\JJ	.	.	.	.	.	.
8d\L	.	8ff#\L	16ff#\LL	8d\L	-cel-	8ff#\L	.	.	8r
.	.	.	16aa\	.	.	.	.	.	.
16c#\L	.	16ee\L	16aa\	16c#\L	.	16ee\L	.	.	16a/LL
16B\JJ	.	16dd\JJ	16aa\JJ	16B\JJ	.	16dd\JJ	.	.	16a/JJ
*	*	*	*tremolo	*	*	*	*	*	*
8c#\L	.	8ee\L	16aa\LL	8c#\L	.	8ee\L	.	.	8a/L
.	.	.	16aa\	.	.	.	.	.	.
8A\J	.	8cc#\J	16aa\	8A\J	.	8cc#\J	.	.	8a/J
.	.	.	16aa\JJ	.	.	.	.	.	.
=19	=19	=19	=19	=19	=19	=19	=19	=19	=19
8B\L	.	8dd\L	16dd\LL	8B\L	.	8dd\L	.	8r	4f#/
.	.	.	16ff#\	.	.	.	.	.	.
16A\L	.	16cc#\L	16ff#\	16A\L	.	16cc#\L	.	16f#/LL	.
16G\JJ	.	16b\JJ	16ff#\JJ	16G\JJ	.	16b\JJ	.	16f#/JJ	.
8A\L	.	8cc#\L	16ff#\LL	8A\L	.	8cc#\L	.	8f#/L	4r
.	.	.	16ff#\	.	.	.	.	.	.
8F#\J	.	8a\J	16ff#\	8F#\J	.	8a\J	.	8f#/J	.
.	.	.	16ff#\JJ	.	.	.	.	.	.
!	!	!LO:LB:g=original	!	!	!	!LO:PB:g=original	!	!	!
8G\L	.	8b\L	16b\LL	8G\L	.	8b\L	.	4d/	8r
.	.	.	16dd\	.	.	.	.	.	.
16F#\L	.	16a\L	16dd\	16F#\L	.	16a\L	.	.	16d/LL
16E\JJ	.	16g\JJ	16dd\JJ	16E\JJ	.	16g\JJ	.	.	16d/JJ
8F#\L	.	8a/L	16dd\LL	8F#\L	.	8a\L	.	8r	8d/L
.	.	.	16dd\	.	.	.	.	.	.
8D\J	.	8f#/J	16dd\	8D\J	.	8dd\J	.	16d/LL	8d/J
.	.	.	16dd\JJ	.	.	.	.	16d/JJ	.
*	*	*	*Xtremolo	*	*	*	*	*	*
=20	=20	=20	=20	=20	=20	=20	=20	=20	=20
8G\L	.	8d/L	16b\LL	8G\L	.	8b\L	.	4d/	4d/
.	.	.	16g\	.	.	.	.	.	.
8A\	.	8g/J	16cc#\	8A\	.	8cc#\	.	.	.
.	.	.	16a\JJ	.	.	.	.	.	.
8B\	.	8f#/L	16dd\LL	8B\	.	8dd\	.	4r	4r
.	.	.	16b\	.	.	.	.	.	.
8c#\J	.	[8a/J	16ee\	8c#\J	.	8ee\J	.	.	.
.	.	.	16cc#\JJ	.	.	.	.	.	.
8d\L	.	8a/L]	16ff#\LL	8d\L	.	8ff#\L	.	4r	4r
.	.	.	16aa\	.	.	.	.	.	.
8A\	.	8g/	16cc#\	8A\	.	8cc#\	.	.	.
.	.	.	16aa\JJ	.	.	.	.	.	.
8B\	.	8f#/	16dd\LL	8B\	.	8dd\	.	8r	8r
.	.	.	16gg\	.	.	.	.	.	.
8G\J	.	8b/J	16ff#\	8G\J	.	8ee\J	.	8ee\	8gg\
.	.	.	16ee\JJ	.	.	.	.	.	.
!	!	!	!LO:LB:g=original	!	!	!	!	!	!
=21	=21	=21	=21	=21	=21	=21	=21	=21	=21
4A\	.	4e/	4dd\	4A\	.	4dd\	.	4dd\	4ff#\
4AA/	.	4cc#t\	4eeT\	4AA/	.	4cc#\	.	4a/	4ee\
8D\L	.	8dd\L	8dd\L	8D/	-sis	8dd\	-sis	8f#/L	8dd\L
8A\	.	8cc#\	8ee\	8A\	o-	8cc#\	o-	8a/	8ee\
8A\	.	8cc#\	8ee\	8A\	-san-	8cc#\	-san-	8a/	8ee\
8A\J	.	8cc#\J	8ee\J	8A\	-na	8cc#\	-na	8a/J	8ee\J
=22	=22	=22	=22	=22	=22	=22	=22	=22	=22
!LO:TX:a:t=P:problem=mixed beam	!	!	!LO:TX:a:t=P:problem=mixed beam	!	!	!	!	!	!
8d\L	.	8dd\L	8ff#\L	8d\	in	8dd\	in	16dd\LL	8ff#\L
.	.	.	.	.	.	.	.	16a\JJ	.
8G\	.	8b\J	8dd\	8G\	ex-	8b\	ex-	16f#/LL	8ee\J
.	.	.	.	.	.	.	.	16d/JJ	.
8A\	.	4eT/	8e/	4A\	-cel-	4cc#t\	-cel-	8a/L	4eeT\
8AA/J	.	.	8cc#t\J	.	.	.	.	8a/J	.
4D\	.	4f#/	4dd\	4D\	-sis	4dd\	-sis	4f#/	4dd\
!	!	!	!	!	!	!LO:TX:a:t=Benedictus Tacet	!	!LO:TX:a:t=Benedictus Ta Cet	!LO:TX:a:t=Benedictus Tacet
4r	.	4r	4r	4r	.	4r	.	4r	4r
==	==	==	==	==	==	==	==	==	==
*-	*-	*-	*-	*-	*-	*-	*-	*-	*-
!!!system-decoration: [(s1,s2)][(s3,s4)][(s5,s6)]s7
!!!ENC: Berenika Jozajtis
!!!END: 2020-12-10
!!!ENC: Leszek Kubiak
!!!END: 2022-03-28
!!!YEC: Copyright 2022 Narodowy Instytut Fryderyka Chopina (https://polishscores.org)
!!!YEM: License CC-BY-4.0 (https://creativecommons.org/licenses/by/4.0)
